humanity-icon-theme/Humanity/animations/24/brasero-disc-65.svg

<?xml version="1.0" encoding="UTF-8" standalone="no"?>
<!-- Created with Inkscape (http://www.inkscape.org/) -->
<svg
   xmlns:svg="http://www.w3.org/2000/svg"
   xmlns="http://www.w3.org/2000/svg"
   xmlns:xlink="http://www.w3.org/1999/xlink"
   version="1.0"
   width="24"
   height="24"
   id="svg2">
  <defs
     id="defs4">
    <linearGradient
       id="linearGradient3587-6-5">
      <stop
         id="stop3589-9-2"
         style="stop-color:#000000;stop-opacity:1"
         offset="0" />
      <stop
         id="stop3591-7-4"
         style="stop-color:#363636;stop-opacity:1"
         offset="1" />
    </linearGradient>
    <linearGradient
       x1="15.669166"
       y1="-2.6219723"
       x2="15.669166"
       y2="11.969362"
       id="linearGradient2399"
       xlink:href="#linearGradient3587-6-5"
       gradientUnits="userSpaceOnUse"
       gradientTransform="matrix(0.9302326,0,0,1.2359551,-10.575969,6.1536003)" />
    <linearGradient
       x1="35.007519"
       y1="23.178743"
       x2="35.007519"
       y2="4.9945626"
       id="linearGradient2402"
       xlink:href="#linearGradient3587-6-5"
       gradientUnits="userSpaceOnUse"
       gradientTransform="translate(-24.785715,-2.035714)" />
    <linearGradient
       x1="35.007519"
       y1="23.178743"
       x2="35.007519"
       y2="4.9945626"
       id="linearGradient2450"
       xlink:href="#linearGradient3587-6-5"
       gradientUnits="userSpaceOnUse"
       gradientTransform="translate(-24.785715,-2.035714)" />
    <linearGradient
       x1="15.669166"
       y1="-2.6219723"
       x2="15.669166"
       y2="11.969362"
       id="linearGradient2420"
       xlink:href="#linearGradient3587-6-5"
       gradientUnits="userSpaceOnUse"
       gradientTransform="matrix(0.9302326,0,0,1.2359551,-10.575969,6.1536003)" />
    <linearGradient
       x1="15.669166"
       y1="-2.6219723"
       x2="15.669166"
       y2="11.969362"
       id="linearGradient2423"
       xlink:href="#linearGradient3587-6-5"
       gradientUnits="userSpaceOnUse"
       gradientTransform="matrix(0.9302326,0,0,1.2359551,-34.094041,2.1837208)" />
    <linearGradient
       x1="35.007519"
       y1="23.178743"
       x2="35.007519"
       y2="4.9945626"
       id="linearGradient2426"
       xlink:href="#linearGradient3587-6-5"
       gradientUnits="userSpaceOnUse"
       gradientTransform="translate(-48.303787,-6.0055935)" />
    <linearGradient
       x1="35.007519"
       y1="23.178743"
       x2="35.007519"
       y2="4.9945626"
       id="linearGradient2433"
       xlink:href="#linearGradient3587-6-5"
       gradientUnits="userSpaceOnUse"
       gradientTransform="translate(-48.303787,-6.0055935)" />
    <linearGradient
       x1="15.669166"
       y1="-2.6219723"
       x2="15.669166"
       y2="11.969362"
       id="linearGradient2435"
       xlink:href="#linearGradient3587-6-5"
       gradientUnits="userSpaceOnUse"
       gradientTransform="matrix(0.9302326,0,0,1.2359551,-34.094041,2.1837208)" />
    <linearGradient
       x1="15.669166"
       y1="-2.6219723"
       x2="15.669166"
       y2="11.969362"
       id="linearGradient2442"
       xlink:href="#linearGradient3587-6-5"
       gradientUnits="userSpaceOnUse"
       gradientTransform="matrix(-0.9302326,0,0,-1.2359551,34.575969,17.846399)" />
    <linearGradient
       x1="35.007519"
       y1="23.178743"
       x2="35.007519"
       y2="4.9945626"
       id="linearGradient2445"
       xlink:href="#linearGradient3587-6-5"
       gradientUnits="userSpaceOnUse"
       gradientTransform="matrix(-1,0,0,-1,48.785715,26.035713)" />
    <linearGradient
       x1="35.007519"
       y1="23.178743"
       x2="35.007519"
       y2="4.9945626"
       id="linearGradient2447"
       xlink:href="#linearGradient3587-6-5"
       gradientUnits="userSpaceOnUse"
       gradientTransform="translate(-24.785715,-2.035714)" />
    <linearGradient
       x1="15.669166"
       y1="-2.6219723"
       x2="15.669166"
       y2="11.969362"
       id="linearGradient2449"
       xlink:href="#linearGradient3587-6-5"
       gradientUnits="userSpaceOnUse"
       gradientTransform="matrix(0.9302326,0,0,1.2359551,-10.575969,6.1536003)" />
    <linearGradient
       x1="15.669166"
       y1="-2.6219723"
       x2="15.669166"
       y2="11.969362"
       id="linearGradient2452"
       xlink:href="#linearGradient3587-6-5"
       gradientUnits="userSpaceOnUse"
       gradientTransform="matrix(0.9302326,0,0,1.2359551,-10.575969,6.1536003)" />
    <linearGradient
       x1="35.007519"
       y1="23.178743"
       x2="35.007519"
       y2="4.9945626"
       id="linearGradient2455"
       xlink:href="#linearGradient3587-6-5"
       gradientUnits="userSpaceOnUse"
       gradientTransform="translate(-24.785715,-2.035714)" />
  </defs>
  <path
     d="M 12,5 C 7.5840001,5 3.9999998,8.5840001 4,13 C 4,17.416 7.5840002,21 12,21 C 16.416,21 20,17.416 20,13 C 20,8.5840001 16.416,5.0000002 12,5 z M 12,10 C 13.656,10 15,11.344 15,13 C 15,14.656 13.656,16 12,16 C 10.344,16 9,14.656 9,13 C 9.0000001,11.344 10.344,10 12,10 z"
     id="path3229"
     style="opacity:0.6;fill:#ffffff;fill-opacity:1;fill-rule:evenodd;stroke:none;stroke-width:1;stroke-linecap:butt;stroke-linejoin:miter;marker:none;marker-start:none;marker-mid:none;marker-end:none;stroke-miterlimit:4;stroke-dasharray:none;stroke-dashoffset:0;stroke-opacity:1;visibility:visible;display:inline;overflow:visible;enable-background:accumulate" />
  <path
     d="M 12,4 C 7.5840001,4 3.9999998,7.5840001 4,12 C 4,13.778255 4.579872,15.421269 5.5625,16.75 L 9.59375,13.78125 C 9.2236138,13.282331 9,12.668488 9,12 C 9.0000001,10.344 10.344,9 12,9 L 12,4 z M 5.625,16.8125 C 5.7730296,17.008162 5.9287413,17.193944 6.09375,17.375 C 5.9322527,17.197141 5.7701364,17.004386 5.625,16.8125 z M 11.03125,19.9375 C 11.350291,19.976251 11.670555,20 12,20 C 11.670282,20 11.350582,19.976324 11.03125,19.9375 z"
     id="path3170"
     style="opacity:0.41999996;fill:url(#linearGradient2455);fill-opacity:1;fill-rule:evenodd;stroke:none;stroke-width:1;stroke-linecap:butt;stroke-linejoin:miter;marker:none;marker-start:none;marker-mid:none;marker-end:none;stroke-miterlimit:4;stroke-dasharray:none;stroke-dashoffset:0;stroke-opacity:1;visibility:visible;display:inline;overflow:visible;enable-background:accumulate" />
  <path
     d="M 12,4 L 12,9 C 13.656,9.0000001 15,10.344 15,12 C 15,13.656 13.656,15 12,15 C 11.012488,14.999999 10.140527,14.518268 9.59375,13.78125 L 5.5625,16.75 C 7.020065,18.720951 9.362255,19.999999 12,20 C 16.416,20 20,16.416 20,12 C 20,7.5840001 16.416,4.0000002 12,4 z"
     id="path3288"
     style="opacity:0.7;fill:url(#linearGradient2452);fill-opacity:1;fill-rule:nonzero;stroke:none;stroke-width:1;stroke-linecap:butt;stroke-linejoin:miter;marker:none;marker-start:none;marker-mid:none;marker-end:none;stroke-miterlimit:4;stroke-dasharray:none;stroke-dashoffset:0;stroke-opacity:1;visibility:visible;display:inline;overflow:visible;enable-background:accumulate" />
</svg>

<?xml version="1.0" encoding="UTF-8" standalone="no"?>
<!-- Created with Inkscape (http://www.inkscape.org/) -->
<svg id="svg2" xmlns="http://www.w3.org/2000/svg" height="24" width="24" version="1.0" xmlns:xlink="http://www.w3.org/1999/xlink">
 <defs id="defs4">
  <linearGradient id="linearGradient3587-6-5">
   <stop id="stop3589-9-2" offset="0"/>
   <stop id="stop3591-7-4" style="stop-color:#363636" offset="1"/>
  </linearGradient>
  <linearGradient id="linearGradient2452" y2="11.969" xlink:href="#linearGradient3587-6-5" gradientUnits="userSpaceOnUse" x2="15.669" gradientTransform="matrix(.93023 0 0 1.236 -10.576 6.1536)" y1="-2.622" x1="15.669"/>
  <linearGradient id="linearGradient2455" y2="4.9946" xlink:href="#linearGradient3587-6-5" gradientUnits="userSpaceOnUse" x2="35.008" gradientTransform="translate(-24.786 -2.0357)" y1="23.179" x1="35.008"/>
 </defs>
 <path id="path3229" style="opacity:.6;fill-rule:evenodd;fill:#fff" d="m12 5c-4.416 0-8 3.584-8 8s3.584 8 8 8 8-3.584 8-8-3.584-8-8-8zm0 5c1.656 0 3 1.344 3 3s-1.344 3-3 3-3-1.344-3-3 1.344-3 3-3z"/>
 <path id="path3170" style="opacity:0.42;fill-rule:evenodd;fill:url(#linearGradient2455)" d="m12 4c-4.416 0-8 3.584-8 8 0 1.778 0.5799 3.421 1.5625 4.75l4.0313-2.969c-0.3702-0.499-0.5938-1.113-0.5938-1.781 0-1.656 1.344-3 3-3v-5zm-6.375 12.812c0.148 0.196 0.3037 0.382 0.4688 0.563-0.1615-0.178-0.3237-0.371-0.4688-0.563zm5.406 3.126c0.319 0.038 0.64 0.062 0.969 0.062-0.33 0-0.649-0.024-0.969-0.062z"/>
 <path id="path3288" style="opacity:.7;fill:url(#linearGradient2452)" d="m12 4v5c1.656 0 3 1.344 3 3s-1.344 3-3 3c-0.988 0-1.859-0.482-2.4062-1.219l-4.0313 2.969c1.4576 1.971 3.7998 3.25 6.4375 3.25 4.416 0 8-3.584 8-8s-3.584-8-8-8z"/>
</svg>
